X:1
T:C Major Samuel Holyoke, 1803
T:Isaac Watts, 1719 (Hymn 92, Book 2)     86. 86. (C. M.)
T:Byfield Transcribed from The Columbian Repository, 1791.
%%score [ 1 2 3 4 ]
L:1/8
Q:1/4=130
M:4/4
K:C
V:1 treble nm="Treble" snm="Tr."
V:2 treble nm="Counter" snm="C."
V:3 treble-8 nm="Tenor" snm="T."
V:4 bass nm="Bass" snm="B."
V:1
 c4 | e2 ed c2 c2 | B2 A2 G2 c2 | e2 ed c2 B2 | c6 c2 | ed cd e2 B2 | ce dc B2 c2 | c2 e2 d2 c2 | %8
 B8 |: z8 | %10
 z4 z2"^1. Thee  our glad   voices  sing,""^2. And  with  an  awful  frown.""^3. Their  treasons all betrayed:""^4. From their malicious power;" c2 | %11
 B2 Bc d2 dc | B6 B2 | c2 e2 d2 d2 | [Bd]6 B2 | c2 c2 c2 d2 | e2 e2 e2 e2 | c2 c2 c2 c2 | c6 d2 | %19
 e2 ed c2 B2 | c8 :| %21
V:2
"^1. Shout to the Lord, and let our joys  Through the whole nation run;  Ye western skies, resound the noise  Beyond the rising sun.""^2. Thy power the whole creation rules,  And on the starry skies  Sits smiling  at  the  weak  designs     Thine  envious foes de–vise.""^3. Their secret fires in  caverns   lay,   And  we  the  sa–cri–fice;   But  gloomy  caverns strove in vain  To   'scape all-searching eyes.""^4. In   vain  the  busy   sons  of   hell    Still  new  rebellions  try,  Their souls shall pine with envious rage,  And  vex  away  and  die." [EG]4 | %1
 G2 G2 F2 F2 | ^F2 F2 G2 G2 | G2 G2 G2 F2 | E6 E2 | G2 G2 G2 G2 | G2 A2 G2 G2 | G2 G2 G2 ^F2 | %8
 G8 |: %9
"^1. Thee, mighty God, our souls ad – mire,  ________________ Thee our glad  voi – ces   sing,            And   join  with the ce – les – tial choir    To""^2. Thy  scorn  derides  their  feeble  rage, _________________  And with an   aw  –  ful  frown.          Flings  vast  confusion  on  their plots,   And""^3. Their  dark  designs  were all revealed, _________________  Their  trea–sons all  be–trayed:          Praise to the God that broke the snare   Their""^4. Al – migh – ty  grace defends our land _________________  From their ma–li–cious  power;         Then  let   us  with  u  –  ni  – ted songs   Al –" G4 EF GA | %10
 G2 G2 GF EF | G8- | G6 G2 | G2 c2 B2 A2 | G6 G2 | G2 G2 G2 G2 | G2 G2 G2 G2 | %17
"^1. praise th'eternal King,      To    praise th'e–ter–nal   King.""^2. shakes their Babel down, And shakes their Babel  down.""^3. cursed hands had laid,      Their cur–sed hands had  laid.""^4. –migh–ty grace adore,       Al – migh – ty   grace  a –dore." A2 A2 A2 A2 | %18
 G6 G2 | G2 G2 G2 F2 | E8 :| %21
V:3
 c4 | c2 cB A2 A2 | d2 dc B2 G2 | c2 cd e2 d2 | c6 c2 | cd ed c2 d2 | eg fe d2 gf | e2 dc B2 A2 | %8
 G8 |: z8 | %10
 z4 z2"^1. Thee  our glad   voices  sing,""^2. And  with  an  awful  frown.""^3. Their  treasons all betrayed:""^4. From their malicious power;" e2 | %11
 d2 de f2 fe | d6 d2 | e2 c2 g2 ^f2 | g6 g2 | e2 e2 e2 d2 | c2 c2 c2 e2 | f2 f2 f2 f2 | e6 d2 | %19
 c2 gf e2 d2 | c8 :| %21
V:4
 C,4 | C,2 C,2 F,2 F,2 | D,2 D,2 G,F, E,D, | C,2 C,2 G,2 G,,2 | C,6 C,2 | C,2 C,2 C,2 G,2 | %6
 C2 F,2 G,F, E,D, | C,2 C,2 D,2 D,2 | G,8 |: %9
"^1. Thee, mighty God, our souls ad – mire,  _________ Thee""^2. Thy  scorn  derides  their  feeble  rage, _________  And""^3. Their  dark  designs  were all revealed, _________ Their""^4. Al – migh – ty  grace defends our land  ________   From" C,4 C,D, E,F, | %10
 G,2 G,2 C2 C,2 | G,8- | G,6 G,2 | C2 A,2 D2 D,2 | G,6 G,2 | C,2 C,2 C,2 G,2 | C2 C2 C2 C2 | %17
 F,2 F,2 F,2 F,2 | C6 G,2 | C2 E,F, G,2 G,,2 | C,8 :| %21

